tools/download-figma-icons/icons/outlined-large/person-folder.svg

<svg width="64" height="64" viewBox="0 0 64 64" fill="none" xmlns="http://www.w3.org/2000/svg">
<path fill-rule="evenodd" clip-rule="evenodd" d="M56.1496 61C57.1696 61 57.9996 60.17 57.9996 59.15V4.84945C57.9996 3.83046 57.1696 3.00047 56.1496 3.00047H14.8499C13.8299 3.00047 12.9999 3.83046 12.9999 4.84945V8.00043H15.4999C17.9799 8.00043 19.9998 10.0194 19.9998 12.5004C19.9998 14.9804 17.9799 17.0004 15.4999 17.0004H12.9999V21.0003H15.4999C17.9799 21.0003 19.9998 23.0193 19.9998 25.5003C19.9998 27.9803 17.9799 30.0003 15.4999 30.0003H12.9999V34.0002H15.4999C17.9799 34.0002 19.9998 36.0192 19.9998 38.5002C19.9998 40.9802 17.9799 43.0002 15.4999 43.0002H12.9999V47.0001H15.4999C17.9799 47.0001 19.9998 49.0191 19.9998 51.5001C19.9998 53.9801 17.9799 56.0001 15.4999 56.0001H12.9999V59.15C12.9999 60.17 13.8299 61 14.8499 61H56.1496ZM7.49994 50.0001C6.66995 50.0001 5.99995 50.6701 5.99995 51.5001C5.99995 52.3301 6.66995 53.0001 7.49994 53.0001H9.99992H12.9999H15.4999C16.3299 53.0001 16.9999 52.3301 16.9999 51.5001C16.9999 50.6701 16.3299 50.0001 15.4999 50.0001H12.9999H9.99992H7.49994ZM7.49994 37.0002C6.66995 37.0002 5.99995 37.6702 5.99995 38.5002C5.99995 39.3302 6.66995 40.0002 7.49994 40.0002H9.99992H12.9999H15.4999C16.3299 40.0002 16.9999 39.3302 16.9999 38.5002C16.9999 37.6702 16.3299 37.0002 15.4999 37.0002H12.9999H9.99992H7.49994ZM7.49994 24.0003C6.66995 24.0003 5.99995 24.6703 5.99995 25.5003C5.99995 26.3303 6.66995 27.0003 7.49994 27.0003H9.99992H12.9999H15.4999C16.3299 27.0003 16.9999 26.3303 16.9999 25.5003C16.9999 24.6703 16.3299 24.0003 15.4999 24.0003H12.9999H9.99992H7.49994ZM7.49994 11.0004C6.66995 11.0004 5.99995 11.6704 5.99995 12.5004C5.99995 13.3304 6.66995 14.0004 7.49994 14.0004H9.99992H12.9999H15.4999C16.3299 14.0004 16.9999 13.3304 16.9999 12.5004C16.9999 11.6704 16.3299 11.0004 15.4999 11.0004H12.9999H9.99992H7.49994ZM14.8499 0.000488278H56.1496C58.8196 0.000488278 60.9995 2.17947 60.9995 4.84945V59.15C60.9995 61.82 58.8196 64 56.1496 64H14.8499C12.1799 64 9.99992 61.82 9.99992 59.15V56.0001H7.49994C5.01996 56.0001 2.99998 53.9801 2.99998 51.5001C2.99998 49.0191 5.01996 47.0001 7.49994 47.0001H9.99992V43.0002H7.49994C5.01996 43.0002 2.99998 40.9802 2.99998 38.5002C2.99998 36.0192 5.01996 34.0002 7.49994 34.0002H9.99992V30.0003H7.49994C5.01996 30.0003 2.99998 27.9803 2.99998 25.5003C2.99998 23.0193 5.01996 21.0003 7.49994 21.0003H9.99992V17.0004H7.49994C5.01996 17.0004 2.99998 14.9804 2.99998 12.5004C2.99998 10.0194 5.01996 8.00043 7.49994 8.00043H9.99992V4.84945C9.99992 2.17947 12.1799 0.000488278 14.8499 0.000488278ZM45.8383 43.0003C45.8953 43.0003 45.9404 42.9793 45.9724 42.9383C46.0092 42.8905 45.9995 42.8516 45.9954 42.8355L45.9953 42.8353L44.7694 37.9483C44.1864 35.6233 42.0504 34.0003 39.5754 34.0003H34.4184C31.9415 34.0003 29.8045 35.6263 29.2225 37.9533L28.0035 42.8353L28.0035 42.8353C27.9995 42.8523 27.9905 42.8903 28.0275 42.9383C28.0595 42.9793 28.1045 43.0003 28.1605 43.0003H45.8383ZM41.9994 26.0004C41.9994 23.2434 39.7564 21.0004 36.9994 21.0004C34.2434 21.0004 31.9995 23.2434 31.9995 26.0004C31.9995 28.7564 34.2434 31.0004 36.9994 31.0004C39.7564 31.0004 41.9994 28.7564 41.9994 26.0004ZM47.6793 37.2173L48.9053 42.1063C49.1393 43.0443 48.9323 44.0203 48.3353 44.7842C47.7343 45.5562 46.8223 46.0002 45.8383 46.0002H28.1605C27.1775 46.0002 26.2655 45.5562 25.6635 44.7842C25.0675 44.0213 24.8605 43.0453 25.0945 42.1083L26.3125 37.2263C26.9665 34.6063 28.8605 32.5563 31.2945 31.5973C29.8775 30.1534 28.9995 28.1774 28.9995 26.0004C28.9995 21.5884 32.5885 18.0005 36.9994 18.0005C41.4104 18.0005 44.9994 21.5884 44.9994 26.0004C44.9994 28.1784 44.1204 30.1554 42.7024 31.5983C45.1324 32.5573 47.0233 34.6033 47.6793 37.2173Z" fill="black"/>
</svg>

<svg xmlns="http://www.w3.org/2000/svg" width="64" height="64" fill="none" viewBox="0 0 64 64"><path fill="currentColor" fill-rule="evenodd" d="M56.15 61c1.02 0 1.85-.83 1.85-1.85V4.85C58 3.83 57.17 3 56.15 3h-41.3C13.83 3 13 3.83 13 4.85V8h2.5c2.48 0 4.5 2.02 4.5 4.5S17.98 17 15.5 17H13v4h2.5c2.48 0 4.5 2.02 4.5 4.5S17.98 30 15.5 30H13v4h2.5c2.48 0 4.5 2.02 4.5 4.5S17.98 43 15.5 43H13v4h2.5c2.48 0 4.5 2.02 4.5 4.5S17.98 56 15.5 56H13v3.15c0 1.02.83 1.85 1.85 1.85zM7.5 50c-.83 0-1.5.67-1.5 1.5S6.67 53 7.5 53h8c.83 0 1.5-.67 1.5-1.5s-.67-1.5-1.5-1.5zm0-13c-.83 0-1.5.67-1.5 1.5S6.67 40 7.5 40h8c.83 0 1.5-.67 1.5-1.5s-.67-1.5-1.5-1.5zm0-13c-.83 0-1.5.67-1.5 1.5S6.67 27 7.5 27h8c.83 0 1.5-.67 1.5-1.5s-.67-1.5-1.5-1.5zm0-13c-.83 0-1.5.67-1.5 1.5S6.67 14 7.5 14h8c.83 0 1.5-.67 1.5-1.5s-.67-1.5-1.5-1.5zm7.35-11h41.3A4.86 4.86 0 0 1 61 4.85v54.3A4.86 4.86 0 0 1 56.15 64h-41.3C12.18 64 10 61.82 10 59.15V56H7.5C5.02 56 3 53.98 3 51.5S5.02 47 7.5 47H10v-4H7.5C5.02 43 3 40.98 3 38.5S5.02 34 7.5 34H10v-4H7.5C5.02 30 3 27.98 3 25.5S5.02 21 7.5 21H10v-4H7.5C5.02 17 3 14.98 3 12.5S5.02 8 7.5 8H10V4.85A4.86 4.86 0 0 1 14.85 0m30.988 43a.16.16 0 0 0 .134-.062.11.11 0 0 0 .023-.102l-1.226-4.888C44.186 35.623 42.05 34 39.575 34h-5.157c-2.476 0-4.613 1.626-5.195 3.953l-1.22 4.882c-.003.017-.012.055.024.103a.16.16 0 0 0 .133.062zM42 26c0-2.757-2.243-5-5-5-2.756 0-5 2.243-5 5 0 2.756 2.244 5 5 5 2.757 0 5-2.244 5-5m5.68 11.217 1.226 4.89a3.1 3.1 0 0 1-.57 2.677A3.15 3.15 0 0 1 45.838 46H28.16a3.15 3.15 0 0 1-2.497-1.216 3.1 3.1 0 0 1-.569-2.676l1.218-4.882c.654-2.62 2.548-4.67 4.982-5.629A7.97 7.97 0 0 1 29 26c0-4.412 3.589-8 8-8s8 3.588 8 8a7.97 7.97 0 0 1-2.298 5.598c2.43.96 4.321 3.005 4.977 5.62" clip-rule="evenodd"/></svg>
